priv/static/svgs/icons_new/sport-set-tennis.svg

<svg width="32" height="32" viewBox="0 0 32 32" fill="none" xmlns="http://www.w3.org/2000/svg">
<path d="M13.2299 7.66955C13.8909 8.57446 14.1062 9.77768 13.7845 10.8451C13.4429 12.0269 12.5204 12.9807 12.0713 14.1283C11.6496 15.1827 11.6365 16.3817 12.0426 17.4469C12.4345 18.5051 13.0658 19.3248 14.2435 19.8948C15.4068 20.4578 16.4413 20.4445 17.5287 20.1023C18.6018 19.7531 19.5484 19.0059 20.1137 18.021C20.7351 16.9569 20.9109 15.6416 21.6259 14.6405C22.2779 13.733 23.3551 13.1554 24.4606 13.1055M24.197 19.9677C22.0057 24.4949 16.5593 26.3886 12.0321 24.1973C7.50482 22.006 5.61116 16.5595 7.80245 12.0323C9.99374 7.50506 15.4402 5.61141 19.9674 7.8027C24.4947 9.99399 26.3883 15.4404 24.197 19.9677Z" stroke="black" stroke-miterlimit="10" stroke-linecap="round"/>
</svg>

<svg width="32" height="32" viewBox="0 0 32 32" fill="none" xmlns="http://www.w3.org/2000/svg">
  <symbol id="item" viewBox="0 0 32 32" stroke-width="1" fill="none">
    <path d="M13.23 7.67c.66.904.876 2.108.554 3.175-.341 1.182-1.264 2.136-1.713 3.283a4.59 4.59 0 0 0-.028 3.319c.392 1.058 1.023 1.878 2.2 2.448 1.164.563 2.198.55 3.286.207a4.665 4.665 0 0 0 2.585-2.081c.621-1.064.797-2.38 1.512-3.38a3.753 3.753 0 0 1 2.835-1.536m-.264 6.863a9.107 9.107 0 1 1-16.395-7.936 9.107 9.107 0 0 1 16.395 7.936Z" stroke="currentColor" stroke-miterlimit="10" stroke-linecap="round"/>
  </symbol>
</svg>
